searx/static/themes/simple/img/searxng.svg

<svg xmlns="http://www.w3.org/2000/svg" width="2559" height="1014" fill="none" viewBox="0 0 2559 1014"><g fill="#fff" clip-path="url(#a)"><path d="M1312.27 548.464V664h-67.73V563.902l-29.88-33.366H1106.1V664h-67.73V315.4h218.62l53.29 53.784V474.76l-33.87 34.362zM1106.1 474.76h120.02l17.43-17.43v-67.728l-17.43-17.43H1106.1zm364.93-159.36h61.76L1660.27 664h-68.72l-28.39-77.19h-122.5L1412.27 664h-68.72zm77.19 215.634-46.31-132.468h-1l-44.82 132.468zm76.46-215.634h69.72l86.65 267.924h1L1868.7 315.4h69.72l-124 348.6h-65.74zm350.29 0h251.99v57.27H2042.7v88.146h169.81v56.274H2042.7v89.64h184.26V664h-251.99zm301.01 0h60.76l155.37 236.55h1V315.4h65.24V664h-60.76l-155.37-236.052h-1V664h-65.24z"/><path fill-rule="evenodd" d="M602 889.5c5.447 11.251 35.199 42.894 49.5 50 .317-7.887 1.585-19.419 3-23.5 5.599 7.616 61.893 49.853 78.5 57-3.902-14.321-7.877-38.417-8-45 24.618 18.068 53.437 34.338 95 48.5-8.5-57.5-49-106-76-132.5 9.589 4.147 22.386 9.075 39.5 11.5-4.5-7-29.981-36.355-40.781-47.288C737.653 803.279 735 796.5 735 796.5c30.851 11.211 87.433 25.065 123.986 23.979C772.474 754.971 687.256 647.776 658 608.5c9.733 3.2 29 7.333 29 6-37.486-39.479-134.507-161.049-159.747-193.888C401.5 257 299.5 299.5 299.5 227.5c0-83.5 189-105.5 239-104.5-45-44.5-74.5-63.77-199.5-63.77-21.467-11.6-30.5-23.73-91.5-23.73-69.5 0-137 35.5-167 89.5 8-4 16-8 26.5-8.5-18 19.5-78 113-82.5 141 8.5-7 18-17 29.5-22-27.147 49-49 123.5-49 176 9.5-12.5 17.5-24.5 25.453-35.021C20.319 474 39.5 547 94 600c-3.5-15-8-68-6-78.5 21.542 65.162 55.468 133.397 109.5 188 0-22-.5-28.5-2-39.5 28 32 76.5 79 120 101-12.5-19.5-20.5-36.5-25-52 38 31.745 71 57.5 96.5 107.5 0-52 22.5-77.5 45-77.5 13 0 30.587 15.015 46.5 29 16.5 14.5 34 41.5 41.5 58.5 9.382 21.266 18.5 31 27.5 39 1.5-3 3-7.5 7.5-14 8.914 11.888 25.674 37.199 38.5 48 2-6 4.5-15 8.5-20" clip-rule="evenodd"/></g><defs><clipPath id="a"><path fill="#fff" d="M0 0h2558.67v1013.33H0z"/></clipPath></defs></svg>

<svg width="2559" height="1014" viewBox="0 0 2559 1014" fill="none" xmlns="http://www.w3.org/2000/svg">
<g clip-path="url(#clip0_2_4)">
<path d="M1312.27 548.464V664H1244.54V563.902L1214.66 530.536H1106.1V664H1038.37V315.4H1256.99L1310.28 369.184V474.76L1276.41 509.122L1312.27 548.464ZM1106.1 474.76H1226.12L1243.55 457.33V389.602L1226.12 372.172H1106.1V474.76ZM1471.03 315.4H1532.79L1660.27 664H1591.55L1563.16 586.81H1440.66L1412.27 664H1343.55L1471.03 315.4ZM1548.22 531.034L1501.91 398.566H1500.91L1456.09 531.034H1548.22ZM1624.68 315.4H1694.4L1781.05 583.324H1782.05L1868.7 315.4H1938.42L1814.42 664H1748.68L1624.68 315.4ZM1974.97 315.4H2226.96V372.67H2042.7V460.816H2212.51V517.09H2042.7V606.73H2226.96V664H1974.97V315.4ZM2275.98 315.4H2336.74L2492.11 551.95H2493.11V315.4H2558.35V664H2497.59L2342.22 427.948H2341.22V664H2275.98V315.4Z" fill="white"/>
<path fill-rule="evenodd" clip-rule="evenodd" d="M602 889.5C607.447 900.751 637.199 932.394 651.5 939.5C651.817 931.613 653.085 920.081 654.5 916C660.099 923.616 716.393 965.853 733 973C729.098 958.679 725.123 934.583 725 928C749.618 946.068 778.437 962.338 820 976.5C811.5 919 771 870.5 744 844C753.589 848.147 766.386 853.075 783.5 855.5C779 848.5 753.519 819.145 742.719 808.212C737.653 803.279 735 796.5 735 796.5C765.851 807.711 822.433 821.565 858.986 820.479C772.474 754.971 687.256 647.776 658 608.5C667.733 611.7 687 615.833 687 614.5C649.514 575.021 552.493 453.451 527.253 420.612C401.5 257 299.5 299.5 299.5 227.5C299.5 144 488.5 122 538.5 123C493.5 78.5 464 59.2308 339 59.2308C317.533 47.6308 308.5 35.5 247.5 35.5C178 35.5 110.5 71 80.5 125C88.5 121 96.5 117 107 116.5C89 136 29 229.5 24.5 257.5C33 250.5 42.5 240.5 54 235.5C26.8528 284.5 5 359 5 411.5C14.5 399 22.5 387 30.4528 376.479C20.3194 474 39.5 547 94 600C90.5 585 86 532 88 521.5C109.542 586.662 143.468 654.897 197.5 709.5C197.5 687.5 197 681 195.5 670C223.5 702 272 749 315.5 771C303 751.5 295 734.5 290.5 719C328.5 750.745 361.5 776.5 387 826.5C387 774.5 409.5 749 432 749C445 749 462.587 764.015 478.5 778C495 792.5 512.5 819.5 520 836.5C529.382 857.766 538.5 867.5 547.5 875.5C549 872.5 550.5 868 555 861.5C563.914 873.388 580.674 898.699 593.5 909.5C595.5 903.5 598 894.5 602 889.5Z" fill="white"/>
</g>
<defs>
<clipPath id="clip0_2_4">
<rect width="2558.67" height="1013.33" fill="white"/>
</clipPath>
</defs>
</svg>
